X:1
T:Dudley
T:F Major          William Walker, 1840
T:Transcribed from Southern Harmony, 1845; Counter by B. C. Johnston, 2018..
T:Isaac Watts, 1707 (Hymn 65, Book 1)          86. 86. (C. M.)
%%score [ 1 2 3 4 ]
L:1/8
Q:1/4=150
M:6/4
K:F
V:1 treble nm="Tr." snm="Tr."
V:2 treble nm="C." snm="C."
V:3 treble-8 nm="T." snm="T."
V:4 bass nm="B." snm="B."
V:1
"_1. When  I       can  read my  ti  –  tle  clear  To  mansions  in    the   skies, _________      I'll    bid     farewell  to   every    fear,     And wipe my  weeping  eyes.   I'll    bid" A6 | %1
 c4 A2 c4 c2 | d4 d2 (d2 c2) A2 | c4 c2 (c2 d2) f2 | (d2 c2 d2 c6) | c6 f4 d2 | c4 c2 A4 A2 | %7
 c4 c2 A4 d2 | c4 c2 c6 | d6 c6 | %10
"_1. fare  –  well    to     eve  –  ry        fear,    I'll     bid  fare–well   to  eve–ry  fear,     And wipe my weeping  eyes." (c4 d2) f6 | %11
 d6 c6 | (A4 B2) c6 | c6 f4 d2 | c4 c2 A4 A2 | c4 c2 A4 d2 | c4 c2 c6 |] %17
V:2
"_2. Should earth against  my  soul  engage,    And hellish  darts  be   hurled, ________     Then   I    can  smile  at  Satan's  rage,     And  face a  frowning world.  Then   I\n3.   Let   cares  like  a  wild  deluge  come,    And  storms  of  sorrow  fall, _________      May   I    but   safely reach my home,      My God, my heav'n, my all!   May   I" A6 | %1
 (A2 B2) A2 F4 A2 | A4 A2 (D2 E2) F2 | A4 A2 (F2 G2) F2 | (A2 G2 D2 C6) | C6 F4 D2 | F4 F2 A4 F2 | %7
 (D C3) C2 D4 D2 | (G2 F2) G2 F6 | D6 C6 | %10
"_2.  can    smile   at     Sa  –   tan's   rage,   Then    I   can   smile  at  Satan's  rage,     And  face a  frowning world.\n3.  but     safe  –  ly    reach   my   home,   May    I   but  safe–ly  reach my home,     My God, my heav'n, my all!" (F4 A2) F6 | %11
 D6 C6 | (F4 D2) C6 | C6 F4 D2 | F4 F2 A4 A2 | (F E3) F2 A4 A2 | (G2 F2) G2 F6 |] %17
V:3
"_4. There   shall    I  bathe  my  weary soul       In  seas  of  heav'nly  rest, ___________   And    not    a    wave of trouble  roll         Across  my   peaceful  breast. And  not" c6 | %1
 (A2 B2) c2 F4 F2 | A4 A2 (A2 G2) F2 | A4 A2 (A2 G2) F2 | (A2 G2 AB c6) | c6 (A2 B2) c2 | %6
 F4 F2 A4 c2 | (d c3) c2 A4 A2 | (G2 F2) G2 F6 | A6 c6 | %10
"_4.   a       wave     of    trou – ble       roll,    And    not    a   wave  of trouble  roll       Across  my  peaceful  breast." (f4 d2) c6 | %11
 A6 c6 | (f4 d2) c6 | c6 (A2 B2) c2 | F4 F2 A4 c2 | (d c3) c2 A4 A2 | (G2 F2) G2 F6 |] %17
V:4
 F,6 | F,4 C,2 F,4 F,2 | D,4 D,2 (D,2 C,2) D,2 | F,4 F,2 (F,2 G,2) A,2 | (F,2 E,2 D,2 C,6) | %5
 C,6 F,4 F,2 | A,4 A,2 F,4 F,2 | C,4 C,2 D,4 D,2 | (C,2 D,2) C,2 [F,,F,]6 | D,6 C,6 | %10
"_______________________________________________________________\nA folk hymn derived from a popular song (Jackson 1952, nos. 83 & 135).\n\nEdited by B. C. Johnston, 2018\n   1. Whole piece transposed down from G Major to F Major.\n   2. Counter part written." (F,4 A,2) F,6 | %11
 D,6 C,6 | (D,4 F,2) C,6 | C,6 F,4 F,2 | A,4 A,2 F,4 F,2 | C,4 C,2 D,4 D,2 | %16
 (C,2 D,2) C,2 [F,,F,]6 |] %17

